src/svg/rocket-circle.svg

<?xml version="1.0" encoding="UTF-8"?>
<svg width="128px" height="128px" viewBox="0 0 128 128" version="1.1" xmlns="http://www.w3.org/2000/svg" xmlns:xlink="http://www.w3.org/1999/xlink">
    <!-- Generator: Sketch 47.1 (45422) - http://www.bohemiancoding.com/sketch -->
    <title>rocket-green</title>
    <desc>Created with Sketch.</desc>
    <defs></defs>
    <g id="Icons" stroke="none" stroke-width="1" fill="none" fill-rule="evenodd">
        <g id="rocket-green">
            <circle id="Oval-15" fill="#27AE60" cx="64" cy="64" r="64"></circle>
            <path d="M78.9869602,65.3196147 L78.9869602,74.4852351 C78.9869602,81.0144929 76.3859091,87.2761983 71.7558693,91.8932748 L62.7079545,100.915405 L61.568125,78.7988102 L78.9869602,65.3196147 Z" id="Shape" fill="#FFFFFF" fill-rule="nonzero"></path>
            <path d="M61.1123466,47.3643853 L51.5143068,47.0879603 C44.9665,47.0879603 38.6868523,49.6816431 34.0568125,54.2985666 L25.0088977,63.3208499 L47.1883239,64.4572975 L61.1123466,47.3643853 Z" id="Shape" fill="#FFFFFF" fill-rule="nonzero"></path>
            <path d="M44,68.1728103 C45.1506369,70.307686 46.974282,73.1549616 49.7758994,76.0027021 C52.6568658,78.9310097 55.5501106,80.8207752 57.6971373,82 C66.0224871,75.4782406 74.3479903,68.9563263 82.6731866,62.4345669 C93.0066641,54.3394232 99.3214305,42.0911956 99.9608267,28.9029657 L99.9975084,28.145944 C100.056751,26.9264355 99.0514598,25.9264727 97.8443424,26.004251 L96.4097682,26.0965934 C83.9343289,26.9005611 72.3582802,32.9279168 64.4766401,42.7234931 L44,68.1728103 Z" id="Shape" fill="#FFFFFF" fill-rule="nonzero" opacity="0.708616395"></path>
            <path d="M46.4261592,70.6567042 L41.0758304,76.9762817 C41.7673356,78.4299859 42.8999654,80.3486338 44.7454325,82.2000423 C46.6430623,84.1039718 48.6210381,85.2609859 50.1043253,85.9595634 C52.073737,84.3696761 54.5926471,82.2331972 56.5620588,80.6433099" id="Shape" fill="#FFFFFF" fill-rule="nonzero"></path>
            <ellipse id="Oval" fill="#FFFFFF" fill-rule="nonzero" cx="80.9028547" cy="47.1506338" rx="5.09060554" ry="5.06511268"></ellipse>
            <path d="M38.450059,85 L34.7812003,86.826969 C32.6919339,87.8672627 31.3104972,89.9368498 31.1511477,92.2655554 L31.0058539,94.3902968 C30.9045608,95.8681586 32.1316897,97.0953049 33.6096833,96.9941631 L35.7345475,96.8487145 C38.0630673,96.6893627 40.1327779,95.3079064 41.1730568,93.2186105 L43,89.549547" id="Shape" fill="#FFFFFF" fill-rule="nonzero"></path>
            <path d="M43.1534468,87.6895698 C42.3984661,87.3135998 41.4819645,87.6209766 41.105995,88.3758063 L39.2872884,92.0282821 C38.4964141,93.6162687 36.9058443,94.6781711 35.1358068,94.7992358 L33.0205223,94.9440269 C32.6629559,94.9679052 32.4278229,94.7898062 32.3190777,94.6810608 C32.2103325,94.5723154 32.0317774,94.3367258 32.056112,93.979463 L32.2009028,91.8643275 C32.3221195,90.0944395 33.3840203,88.5037152 34.9718525,87.7128398 L38.6241707,85.8941305 C39.3791515,85.5181604 39.6863757,84.6015054 39.3104062,83.8466756 C38.9345889,83.0918458 38.0179352,82.7844691 37.2629544,83.1604391 L33.6106362,84.9791484 C31.0567207,86.250937 29.3490406,88.8091148 29.1540597,91.655658 L29.0092688,93.7707936 C28.931094,94.912544 29.3502573,96.0313285 30.1593825,96.8404549 C30.9043253,97.5853988 31.9120816,98 32.958317,98 C33.0482029,98 33.1386972,97.9969582 33.2290394,97.9907224 L35.3443239,97.8459314 C38.1908629,97.6511023 40.749037,95.9435718 42.0208236,93.3893483 L43.8395303,89.7370246 C44.2154997,88.9820428 43.9082755,88.0655398 43.1534468,87.6895698 Z" id="Shape" fill="#FFFFFF" fill-rule="nonzero"></path>
            <path d="M29.0435601,62.4417217 L35.5964347,55.8504478 C39.9330751,51.4883952 45.6976913,49.0837112 51.8297754,49.0777347 L58.2414216,49.2671426 L46.8593594,63.3624036 L29.0435601,62.4417217 Z" id="Path" fill="#FFFFFF"></path>
            <path d="M100.944646,26.0248266 C100.226926,25.3136273 99.2381748,24.9417073 98.2338842,25.0074484 L96.8097172,25.0987811 C84.0398995,25.9187826 72.089115,32.1188279 64.0217298,42.1093307 L60.6694223,46.2605214 L51.896657,46.0013881 C51.8817267,46.0009283 51.8666441,46.0007751 51.8518661,46.0007751 C44.8943501,46.0007751 38.3532065,48.7260428 33.4333706,53.6745551 L24.4480772,62.7126547 C24.0207357,63.1425004 23.8849919,63.7853534 24.1019382,64.3526578 C24.3188845,64.9201154 24.8475387,65.3059805 25.4511491,65.3369355 L44.4711221,66.319834 L43.695661,67.2802058 C43.3048835,67.7641462 43.2430294,68.4376477 43.53935,68.985337 C43.8373464,69.5363977 44.1496638,70.0787235 44.4753879,70.6123145 L39.9649162,75.9983347 C39.5793186,76.4588289 39.4962879,77.1032143 39.7520834,77.6476855 C40.7373303,79.7417467 42.0449497,81.6232602 43.6391392,83.2399704 C45.2720256,84.8962172 47.1814271,86.2505759 49.3140212,87.2658086 C49.5224359,87.3651099 49.7459332,87.4136878 49.9680594,87.4136878 C50.3125226,87.4136878 50.6540911,87.2966104 50.9319773,87.0699645 C51.9036651,86.2770869 53.0238941,85.3366366 54.1074067,84.4272946 C54.8796684,83.7790781 55.6699074,83.1159971 56.4081951,82.5045588 C56.8489434,82.7713543 57.2951763,83.0300279 57.7481126,83.2778213 C57.9772469,83.4031738 58.2284719,83.4649306 58.4787828,83.4649306 C58.8118197,83.4649306 59.1427238,83.3558218 59.4166489,83.1418951 L60.4591794,82.3281765 L61.4406176,101.54021 C61.4716969,102.147358 61.8551617,102.67911 62.4191611,102.897327 C62.5977152,102.966287 62.7832774,103 62.9676208,103 C63.3660158,103 63.7572504,102.843233 64.0494575,102.54916 L73.0349033,93.5110605 C77.9547391,88.5623949 80.6639777,81.983074 80.6639777,74.9846344 L80.6639777,66.5570536 L84.2087032,63.7902572 C94.8320629,55.4982962 101.301754,42.9946136 101.959297,29.4850461 L101.995708,28.7363024 C102.045374,27.7242878 101.662062,26.736179 100.944646,26.0248266 Z" id="Shape" fill="#FFFFFF" fill-rule="nonzero"></path>
            <path d="M52.1475773,82.0647523 C51.3491114,82.7347293 50.5305353,83.4218694 49.7709186,84.0503176 C48.301656,83.2499312 46.9725554,82.2512487 45.8110396,81.073119 C44.6860878,79.9322273 43.7285686,78.6331892 42.9564592,77.2022091 L46.258796,73.2588154 C47.2572974,74.6062782 48.3502557,75.8826364 49.5309675,77.078389 C49.5318816,77.0793085 49.5327957,77.0800747 49.5337098,77.0809941 C49.5340145,77.0813006 49.5343192,77.0817604 49.5346239,77.0820668 C49.535081,77.0825266 49.535538,77.0828331 49.5359951,77.0832928 C50.8451379,78.4085354 52.2533082,79.6246693 53.7470991,80.7244919 C53.2196637,81.1649114 52.6792785,81.6185097 52.1475773,82.0647523 Z" id="Path" fill="#FFFFFF"></path>
            <path d="M77.6054008,74.9846344 C77.6054008,81.1610803 75.2142688,86.9677516 70.8721438,91.335321 L64.3192692,97.9265949 L63.404865,80.0290767 L77.6052484,68.9450342 L77.6052484,74.9846344 L77.6054008,74.9846344 Z" id="Path" fill="#FFFFFF"></path>
            <path d="M98.9043762,29.334715 C98.2905584,41.9461272 92.2507983,53.6186216 82.3337328,61.3593687 L58.3447149,80.0839376 C56.3553297,78.914696 54.5010788,77.5341327 52.8040531,75.9699848 L60.8917008,67.8349443 C61.4889125,67.234233 61.4889125,66.2599161 60.8917008,65.6590516 C60.2943368,65.0581871 59.3258484,65.0581871 58.7284843,65.6590516 L50.6484541,73.7864299 C49.1628901,72.1321753 47.8471962,70.3321869 46.7269673,68.4069992 L66.3962556,44.0492297 C73.9272167,34.7230339 85.0834964,28.9350581 97.0044204,28.1697642 L98.4285874,28.0784316 C98.615216,28.0667852 98.740143,28.1599567 98.7977312,28.216963 C98.8550148,28.273816 98.9500812,28.3974828 98.9409402,28.5861246 L98.9043762,29.334715 Z" id="Path" fill="#FFFFFF"></path>
            <path d="M80.5,41 C78.7629838,41 77.1297564,41.6764431 75.9016401,42.9042648 C73.36612,45.4393287 73.36612,49.5640185 75.9016401,52.0989303 C77.1696284,53.3664622 78.8345098,54 80.5,54 C82.1650336,54 83.830676,53.366158 85.0983599,52.0989303 L85.0983599,52.0989303 C87.63388,49.5638664 87.63388,45.4391765 85.0983599,42.9042648 C83.8702436,41.6762909 82.2370162,41 80.5,41 Z" id="Shape" fill="#FFFFFF" fill-rule="nonzero"></path>
            <path d="M82.9378186,49.9386031 C81.5935867,51.2823604 79.4062612,51.2823604 78.0623335,49.9386031 C76.7181016,48.5948457 76.7181016,46.4081972 78.0623335,45.0642877 C78.7135244,44.4132531 79.579141,44.0547961 80.5,44.0547961 C81.420859,44.0547961 82.2864756,44.4132531 82.9376665,45.0642877 C84.2818984,46.4081972 84.2818984,48.5948457 82.9378186,49.9386031 Z" id="Path" fill="#FFFFFF"></path>
        </g>
    </g>
</svg>

<svg width="128" height="128" xmlns="http://www.w3.org/2000/svg"><path d="M64 128c35.346 0 64-28.654 64-64 0-35.346-28.654-64-64-64C28.654 0 0 28.654 0 64c0 35.346 28.654 64 64 64zM38.45 85l-3.669 1.827a6.577 6.577 0 0 0-3.63 5.439l-.145 2.124a2.443 2.443 0 0 0 2.604 2.604l2.125-.145a6.577 6.577 0 0 0 5.438-3.63L43 89.549m57.945-63.524a3.53 3.53 0 0 0-2.711-1.018l-1.424.092c-12.77.82-24.72 7.02-32.788 17.01l-3.353 4.152-8.772-.26c-7.003 0-13.544 2.725-18.464 7.674l-8.985 9.038a1.545 1.545 0 0 0-.346 1.64 1.53 1.53 0 0 0 1.35.984l19.02.983-.776.96a1.546 1.546 0 0 0-.157 1.705c.298.551.61 1.094.936 1.627l-4.51 5.386a1.546 1.546 0 0 0-.213 1.65 20.16 20.16 0 0 0 3.887 5.592 20.027 20.027 0 0 0 5.675 4.026 1.52 1.52 0 0 0 1.618-.196c.972-.793 2.092-1.733 3.175-2.643.773-.648 1.563-1.311 2.301-1.922.44.266.887.525 1.34.773a1.52 1.52 0 0 0 1.669-.136l1.042-.814.982 19.212a1.538 1.538 0 0 0 1.527 1.46c.398 0 .79-.157 1.081-.45l8.986-9.039c4.92-4.949 7.629-11.528 7.629-18.526v-8.428l3.545-2.767c10.623-8.292 17.093-20.795 17.75-34.305l.037-.749c.05-1.012-.334-2-1.051-2.711z" fill="#D8D8D8" fill-rule="evenodd"/></svg>
